Numix-GalliumOS/24/devices/audio-speakers.svg

<?xml version="1.0" encoding="UTF-8" standalone="no"?>
<svg
   xmlns:dc="http://purl.org/dc/elements/1.1/"
   xmlns:cc="http://creativecommons.org/ns#"
   xmlns:rdf="http://www.w3.org/1999/02/22-rdf-syntax-ns#"
   xmlns:svg="http://www.w3.org/2000/svg"
   xmlns="http://www.w3.org/2000/svg"
   xmlns:sodipodi="http://sodipodi.sourceforge.net/DTD/sodipodi-0.dtd"
   xmlns:inkscape="http://www.inkscape.org/namespaces/inkscape"
   width="24"
   height="24"
   id="svg2"
   version="1.1"
   inkscape:version="0.91 r"
   sodipodi:docname="audio-speakers.svg">
  <metadata
     id="metadata104">
    <rdf:RDF>
      <cc:Work
         rdf:about="">
        <dc:format>image/svg+xml</dc:format>
        <dc:type
           rdf:resource="http://purl.org/dc/dcmitype/StillImage" />
        <dc:title />
      </cc:Work>
    </rdf:RDF>
  </metadata>
  <sodipodi:namedview
     pagecolor="#ffffff"
     bordercolor="#666666"
     borderopacity="1"
     objecttolerance="10"
     gridtolerance="10"
     guidetolerance="10"
     inkscape:pageopacity="0"
     inkscape:pageshadow="2"
     inkscape:window-width="1280"
     inkscape:window-height="998"
     id="namedview102"
     showgrid="true"
     inkscape:zoom="4.9166667"
     inkscape:cx="-26.882458"
     inkscape:cy="40.364513"
     inkscape:window-x="0"
     inkscape:window-y="0"
     inkscape:window-maximized="1"
     inkscape:current-layer="svg2">
    <inkscape:grid
       type="xygrid"
       id="grid3081"
       empspacing="5"
       visible="true"
       enabled="true"
       snapvisiblegridlinesonly="true" />
  </sodipodi:namedview>
  <defs
     id="defs4" />
  <path
     sodipodi:type="arc"
     style="fill:#073642;fill-opacity:1;stroke:none"
     id="path4009-1-7"
     sodipodi:cx="8"
     sodipodi:cy="6"
     sodipodi:rx="3"
     sodipodi:ry="3"
     d="M 11,6 A 3,3 0 1 1 5,6 3,3 0 1 1 11,6 z"
     transform="matrix(0.66666665,0,0,0.66666665,11.675147,12.991531)" />
  <path
     sodipodi:type="arc"
     style="fill:#073642;fill-opacity:1;stroke:none"
     id="path4009-2"
     sodipodi:cx="8"
     sodipodi:cy="6"
     sodipodi:rx="3"
     sodipodi:ry="3"
     d="M 11,6 A 3,3 0 1 1 5,6 3,3 0 1 1 11,6 z"
     transform="matrix(0.66666665,0,0,0.66666665,11.675147,2.974576)" />
  <path
     sodipodi:type="arc"
     style="fill:#073642;fill-opacity:1;stroke:none"
     id="path4009-1"
     sodipodi:cx="8"
     sodipodi:cy="6"
     sodipodi:rx="3"
     sodipodi:ry="3"
     d="M 11,6 A 3,3 0 1 1 5,6 3,3 0 1 1 11,6 z"
     transform="matrix(0.66666665,0,0,0.66666665,1.6073446,12.991531)" />
  <path
     sodipodi:type="arc"
     style="fill:#073642;fill-opacity:1;stroke:none"
     id="path4009"
     sodipodi:cx="8"
     sodipodi:cy="6"
     sodipodi:rx="3"
     sodipodi:ry="3"
     d="M 11,6 A 3,3 0 1 1 5,6 3,3 0 1 1 11,6 z"
     transform="matrix(0.66666665,0,0,0.66666665,1.6073446,2.974576)" />
  <path
     sodipodi:type="arc"
     style="fill:#073642;fill-opacity:1;stroke:none"
     id="path3906"
     sodipodi:cx="24"
     sodipodi:cy="24"
     sodipodi:rx="16"
     sodipodi:ry="16"
     d="M 40,24 A 16,16 0 1 1 8,24 16,16 0 1 1 40,24 z"
     transform="scale(0.5,0.5)" />
  <path
     sodipodi:type="arc"
     style="fill:#657b83;fill-opacity:1;stroke:none"
     id="path3908"
     sodipodi:cx="24"
     sodipodi:cy="24"
     sodipodi:rx="13"
     sodipodi:ry="13"
     d="m 37,24 a 13,13 0 1 1 -26,0 13,13 0 1 1 26,0 z"
     transform="scale(0.5,0.5)" />
  <path
     style="fill:#fdf6e3;fill-opacity:0.25301208;stroke:none"
     d="m 12,12 0.53174,6.46737 c 1.535184,-0.125381 2.961882,-0.792428 4.041294,-1.861206 L 12,12 z"
     id="path3912"
     inkscape:connector-curvature="0" />
  <path
     inkscape:connector-curvature="0"
     style="fill:#268bd2;fill-opacity:0.25301208;stroke:none"
     d="m 12,12 3.694186,5.335036 c 1.266818,-0.876175 2.168851,-2.167203 2.56926,-3.632497 L 12,12 z"
     id="path3912-4"
     inkscape:transform-center-x="-6.263446"
     inkscape:transform-center-y="5.3350365" />
  <path
     sodipodi:type="arc"
     style="fill:none;stroke:#fdf6e3;stroke-width:2;stroke-miterlimit:4;stroke-opacity:0.1566265;stroke-dasharray:none"
     id="path3908-5"
     sodipodi:cx="24"
     sodipodi:cy="24"
     sodipodi:rx="13"
     sodipodi:ry="13"
     d="m 37,24 a 13,13 0 1 1 -26,0 13,13 0 1 1 26,0 z"
     transform="scale(0.5,0.5)" />
  <path
     style="fill:#073642;fill-opacity:0.26104419;stroke:none"
     d="M 12,12 11.46826,5.53263 C 9.9330755,5.65801 8.5063775,6.325058 7.426966,7.393836 L 12,12 z"
     id="path3912-9"
     inkscape:connector-curvature="0" />
  <path
     inkscape:connector-curvature="0"
     style="fill:#002b36;fill-opacity:0.14457834;stroke:none"
     d="M 12,12 8.3058145,6.664963 C 7.038996,7.541138 6.136963,8.832167 5.736554,10.297461 L 12,12 z"
     id="path3912-4-3"
     inkscape:transform-center-x="6.263446"
     inkscape:transform-center-y="-5.3350365" />
  <path
     sodipodi:type="arc"
     style="fill:#073642;fill-opacity:1;stroke:none"
     id="path3910"
     sodipodi:cx="23.5"
     sodipodi:cy="22.5"
     sodipodi:rx="3.5"
     sodipodi:ry="3.5"
     d="m 27,22.5 a 3.5,3.5 0 1 1 -7,0 3.5,3.5 0 1 1 7,0 z"
     transform="matrix(0.85714284,0,0,0.85714284,-8.1428568,-7.2857137)" />
</svg>

<svg xmlns="http://www.w3.org/2000/svg" viewBox="0 0 24 24">
 <path d="M 11 6 A 3 3 0 1 1 5 6 3 3 0 1 1 11 6 z" transform="matrix(0.66666665,0,0,0.66666665,11.675147,12.991531)" style="fill:#073642;fill-opacity:1;stroke:none"/>
 <path d="M 11 6 A 3 3 0 1 1 5 6 3 3 0 1 1 11 6 z" transform="matrix(0.66666665,0,0,0.66666665,11.675147,2.974576)" style="fill:#073642;fill-opacity:1;stroke:none"/>
 <path d="M 11 6 A 3 3 0 1 1 5 6 3 3 0 1 1 11 6 z" transform="matrix(0.66666665,0,0,0.66666665,1.6073446,12.991531)" style="fill:#073642;fill-opacity:1;stroke:none"/>
 <path d="M 11 6 A 3 3 0 1 1 5 6 3 3 0 1 1 11 6 z" transform="matrix(0.66666665,0,0,0.66666665,1.6073446,2.974576)" style="fill:#073642;fill-opacity:1;stroke:none"/>
 <path d="M 40 24 A 16 16 0 1 1 8 24 16 16 0 1 1 40 24 z" transform="scale(0.5,0.5)" style="fill:#073642;fill-opacity:1;stroke:none"/>
 <path d="m 37 24 a 13 13 0 1 1 -26 0 13 13 0 1 1 26 0 z" transform="scale(0.5,0.5)" style="fill:#657b83;fill-opacity:1;stroke:none"/>
 <path d="m 12 12 0.532 6.467 c 1.535 -0.125 2.962 -0.792 4.04 -1.861 l -4.573 -4.606 z" style="fill:#fdf6e3;fill-opacity:0.253;stroke:none"/>
 <path d="m 12 12 3.694 5.335 c 1.267 -0.876 2.169 -2.167 2.569 -3.632 l -6.263 -1.703 z" style="fill:#268bd2;fill-opacity:0.253;stroke:none"/>
 <path d="m 37 24 a 13 13 0 1 1 -26 0 13 13 0 1 1 26 0 z" transform="scale(0.5,0.5)" style="stroke-dasharray:none;stroke-opacity:0.157;fill:none;stroke-miterlimit:4;stroke:#fdf6e3;stroke-width:2"/>
 <path d="m 12 12 -0.532 -6.467 c -1.535 0.125 -2.962 0.792 -4.04 1.861 l 4.573 4.606 z" style="fill:#073642;fill-opacity:0.261;stroke:none"/>
 <path d="m 12 12 -3.694 -5.335 c -1.267 0.876 -2.169 2.167 -2.569 3.632 l 6.263 1.703 z" style="fill:#002b36;fill-opacity:0.145;stroke:none"/>
 <path d="m 27 22.5 a 3.5 3.5 0 1 1 -7 0 3.5 3.5 0 1 1 7 0 z" transform="matrix(0.85714284,0,0,0.85714284,-8.1428568,-7.2857137)" style="fill:#073642;fill-opacity:1;stroke:none"/>
</svg>
